X: 2367
M: C
L: 1/8
K: G
(ugf) | g2 G4 vBG | FADF G2 \
[1,3 (Bc) | dBed cBAG | FA D4 :|\
[2,4 (AB) | cedc BAGF | G2G2G2 ::\
(dc) |\
caAB c2(BA) |\
b(gfg) .d(gfg) | .b(gfg) .d(gfg) |\
edcB AGFA | G2G2G2 |]


